.local/share/icons/Gruvbox-Plus-Dark/mimetypes/scalable/x-package-repository.svg

<svg width="256" height="256" viewBox="0 0 256 256" fill="none" xmlns="http://www.w3.org/2000/svg">
<g opacity="0.4" filter="url(#filter0_f)">
<path fill-rule="evenodd" clip-rule="evenodd" d="M99.4032 15.5636H55.0839H55.0838C46.1734 15.5636 39 22.737 39 31.6474V224.654C39 233.564 46.1734 240.737 55.0838 240.737H55.1727H199.838H199.927C208.838 240.737 216.011 233.564 216.011 224.654L216.011 224.609L216.011 31.6474C216.011 22.737 208.838 15.5636 199.927 15.5636H155.608H99.4032Z" fill="#282828"/>
</g>
<path fill-rule="evenodd" clip-rule="evenodd" d="M99.4032 15H55.0839H55.0838C46.1734 15 39 22.1734 39 31.0838V224.09C39 233 46.1734 240.174 55.0838 240.174H55.1727H199.838H199.927C208.838 240.174 216.011 233 216.011 224.09L216.011 224.046L216.011 31.0838C216.011 22.1734 208.838 15 199.927 15H155.608H99.4032Z" fill="#ebdbb2"/>
<path fill-rule="evenodd" clip-rule="evenodd" d="M216.011 31.0838C216.011 22.1734 208.838 15 199.927 15H55.0839C46.1735 15 39 22.1734 39 31.0838V224.09C39 233 46.1734 240.174 55.0838 240.174H199.927C208.838 240.174 216.011 233 216.011 224.09V31.0838ZM206.011 224.09V31.0838C206.011 27.6963 203.315 25 199.927 25H55.0839C51.6963 25 49 27.6962 49 31.0838V224.09C49 227.478 51.6962 230.174 55.0838 230.174H199.927C203.314 230.174 206.009 227.479 206.011 224.093C206.011 224.093 206.011 224.093 206.011 224.092C206.011 224.091 206.011 224.091 206.011 224.09Z" fill="url(#paint0_linear)"/>
<path d="M103.03 142.425V113.571L128.002 99.1447L152.97 113.571V142.425L128.002 156.855L103.03 142.425Z" fill="url(#paint1_linear)"/>
<path d="M182 101.606L160.378 114.1L160.047 141.644L181.799 154.619L182 101.606Z" fill="url(#paint2_linear)"/>
<path d="M74 154.39L95.626 141.896L95.9531 114.356L74.201 101.377L74 154.39Z" fill="url(#paint3_linear)"/>
<path d="M123.841 188V163.012L100.17 148.956L78.0628 161.32L123.841 188Z" fill="url(#paint4_linear)"/>
<path d="M177.839 161.608L156.217 149.106L132.218 162.594L131.864 187.937L177.839 161.608Z" fill="url(#paint5_linear)"/>
<path d="M78.1613 94.3923L99.7873 106.887L123.786 93.3985L124.14 68.0592L78.1613 94.3923Z" fill="url(#paint6_linear)"/>
<path d="M132.163 68V92.9883L155.83 107.044L177.937 94.6802L132.163 68Z" fill="url(#paint7_linear)"/>
<defs>
<filter id="filter0_f" x="23.8778" y="0.441412" width="207.255" height="255.418" filterUnits="userSpaceOnUse" color-interpolation-filters="sRGB">
<feFlood flood-opacity="0" result="BackgroundImageFix"/>
<feBlend mode="normal" in="SourceGraphic" in2="BackgroundImageFix" result="shape"/>
<feGaussianBlur stdDeviation="7.5611" result="effect1_foregroundBlur"/>
</filter>
<linearGradient id="paint0_linear" x1="39" y1="15" x2="39" y2="240.174" gradientUnits="userSpaceOnUse">
<stop offset="1e-07" stop-color="#fabd2f"/>
<stop offset="0.5" stop-color="#fe8019"/>
<stop offset="1" stop-color="#d65d0e"/>
</linearGradient>
<linearGradient id="paint1_linear" x1="131.496" y1="99.1447" x2="132.163" y2="157.43" gradientUnits="userSpaceOnUse">
<stop stop-color="#fabd2f"/>
<stop offset="1" stop-color="#d79921"/>
</linearGradient>
<linearGradient id="paint2_linear" x1="160.047" y1="101.606" x2="160.047" y2="154.619" gradientUnits="userSpaceOnUse">
<stop offset="1e-07" stop-color="#fe8019"/>
<stop offset="1" stop-color="#d65d0e"/>
</linearGradient>
<linearGradient id="paint3_linear" x1="74" y1="101.377" x2="74" y2="154.39" gradientUnits="userSpaceOnUse">
<stop offset="1e-07" stop-color="#076678"/>
<stop offset="1" stop-color="#458588"/>
</linearGradient>
<linearGradient id="paint4_linear" x1="78.0628" y1="148.956" x2="78.0628" y2="188" gradientUnits="userSpaceOnUse">
<stop offset="1e-07" stop-color="#d3869b"/>
<stop offset="0.5" stop-color="#b16286"/>
<stop offset="1" stop-color="#8f3f71"/>
</linearGradient>
<linearGradient id="paint5_linear" x1="131.864" y1="149.106" x2="131.864" y2="187.937" gradientUnits="userSpaceOnUse">
<stop offset="1e-07" stop-color="#fb4934"/>
<stop offset="1" stop-color="#cc241d"/>
</linearGradient>
<linearGradient id="paint6_linear" x1="86.7686" y1="68.2374" x2="86.8643" y2="106.838" gradientUnits="userSpaceOnUse">
<stop stop-color="#83a598"/>
<stop offset="1" stop-color="#458588"/>
</linearGradient>
<linearGradient id="paint7_linear" x1="132.163" y1="68" x2="132.163" y2="107.044" gradientUnits="userSpaceOnUse">
<stop offset="1e-07" stop-color="#8ec07c"/>
<stop offset="0.5" stop-color="#8ec07c"/>
<stop offset="1" stop-color="#8ec07c"/>
</linearGradient>
</defs>
</svg>

<svg width="256" height="256" fill="none" version="1.1" viewBox="0 0 256 256" xmlns="http://www.w3.org/2000/svg">
  <path d="m99.4 15h-44.32c-8.91 0-16.08 7.173-16.08 16.08v193c0 8.91 7.173 16.08 16.08 16.08h144.8c8.911 0 16.08-7.174 16.08-16.08v-0.044-193c0-8.91-7.173-16.08-16.08-16.08h-100.5z" clip-rule="evenodd" fill="#ebdbb2" fill-rule="evenodd"/>
  <path d="m216 31.08c0-8.91-7.173-16.08-16.08-16.08h-144.8c-8.91 0-16.08 7.173-16.08 16.08v193c0 8.91 7.173 16.08 16.08 16.08h144.8c8.911 0 16.08-7.174 16.08-16.08v-193zm-10 193v-193c0-3.388-2.696-6.084-6.084-6.084h-144.8c-3.388 0-6.084 2.696-6.084 6.084v193c0 3.388 2.696 6.084 6.084 6.084h144.8c3.387 0 6.082-2.695 6.084-6.081v-1e-3 -2e-3z" clip-rule="evenodd" fill="url(#paint0_linear)" fill-rule="evenodd"/>
  <path d="m103 142.4v-28.85l24.97-14.43 24.97 14.43v28.85l-24.97 14.43-24.97-14.43z" fill="url(#paint1_linear)"/>
  <path d="m182 101.6-21.62 12.49-0.331 27.54 21.75 12.98 0.201-53.01z" fill="url(#paint2_linear)"/>
  <path d="m74 154.4 21.63-12.49 0.3271-27.54-21.75-12.98-0.201 53.01z" fill="url(#paint3_linear)"/>
  <path d="m123.8 188v-24.99l-23.67-14.06-22.11 12.36 45.78 26.68z" fill="url(#paint4_linear)"/>
  <path d="m177.8 161.6-21.62-12.5-24 13.49-0.354 25.34 45.98-26.33z" fill="url(#paint5_linear)"/>
  <path d="m78.16 94.39 21.63 12.49 24-13.49 0.354-25.34-45.98 26.33z" fill="url(#paint6_linear)"/>
  <path d="m132.2 68v24.99l23.67 14.06 22.11-12.36-45.77-26.68z" fill="url(#paint7_linear)"/>
  <defs>
    <linearGradient id="paint0_linear" x1="39" x2="39" y1="15" y2="240.2" gradientUnits="userSpaceOnUse">
      <stop stop-color="#fabd2f" offset="1e-7"/>
      <stop stop-color="#fe8019" offset=".5"/>
      <stop stop-color="#d65d0e" offset="1"/>
    </linearGradient>
    <linearGradient id="paint1_linear" x1="131.5" x2="132.2" y1="99.14" y2="157.4" gradientUnits="userSpaceOnUse">
      <stop stop-color="#fabd2f" offset="0"/>
      <stop stop-color="#d79921" offset="1"/>
    </linearGradient>
    <linearGradient id="paint2_linear" x1="160" x2="160" y1="101.6" y2="154.6" gradientUnits="userSpaceOnUse">
      <stop stop-color="#fe8019" offset="1e-7"/>
      <stop stop-color="#d65d0e" offset="1"/>
    </linearGradient>
    <linearGradient id="paint3_linear" x1="74" x2="74" y1="101.4" y2="154.4" gradientUnits="userSpaceOnUse">
      <stop stop-color="#076678" offset="1e-7"/>
      <stop stop-color="#458588" offset="1"/>
    </linearGradient>
    <linearGradient id="paint4_linear" x1="78.06" x2="78.06" y1="149" y2="188" gradientUnits="userSpaceOnUse">
      <stop stop-color="#d3869b" offset="1e-7"/>
      <stop stop-color="#b16286" offset=".5"/>
      <stop stop-color="#8f3f71" offset="1"/>
    </linearGradient>
    <linearGradient id="paint5_linear" x1="131.9" x2="131.9" y1="149.1" y2="187.9" gradientUnits="userSpaceOnUse">
      <stop stop-color="#fb4934" offset="1e-7"/>
      <stop stop-color="#cc241d" offset="1"/>
    </linearGradient>
    <linearGradient id="paint6_linear" x1="86.77" x2="86.86" y1="68.24" y2="106.8" gradientUnits="userSpaceOnUse">
      <stop stop-color="#83a598" offset="0"/>
      <stop stop-color="#458588" offset="1"/>
    </linearGradient>
    <linearGradient id="paint7_linear" x1="132.2" x2="132.2" y1="68" y2="107" gradientUnits="userSpaceOnUse">
      <stop stop-color="#8ec07c" offset="1e-7"/>
      <stop stop-color="#8ec07c" offset=".5"/>
      <stop stop-color="#8ec07c" offset="1"/>
    </linearGradient>
  </defs>
</svg>
